svg/blobs-icons/no-decorations/beer.svg

<svg xmlns="http://www.w3.org/2000/svg" preserveAspectRatio="xMidYMid" width="208" height="217"><defs><style>.cls-3{fill:#f0c90f}.cls-7{fill:#020403;opacity:.35}.cls-9{fill:#fff}</style></defs><g id="group-44svg"><path d="M207.217 79.266c0 6.027-4.885 10.913-10.911 10.913s-10.911-4.886-10.911-10.913c0-6.025 4.885-10.911 10.911-10.911s10.911 4.886 10.911 10.911z" id="path-1" class="cls-3" fill-rule="evenodd"/><path d="M32.723 10.902c0 6.026-4.885 10.912-10.911 10.912s-10.911-4.886-10.911-10.912c0-6.027 4.885-10.911 10.911-10.911s10.911 4.884 10.911 10.911z" id="path-2" class="cls-3" fill-rule="evenodd"/><path d="M145.161 177.199h24.243v-61.711h-33.287v14.707h20.293v33.794h-20.293v13.21h9.044z" id="path-3" class="cls-3" fill-rule="evenodd"/><path d="M138.55 86.836v108.56c0 11.367-7.625 21.473-18.992 21.473H47.524c-11.366.0-19.169-10.106-19.169-21.473V86.836H138.55z" id="path-4" class="cls-3" fill-rule="evenodd"/><path d="M138.55 86.836h-22.039v10.168c-2.021-1.434-3.888-3.072-5.528-4.923-5.881 6.638-14.445 10.847-24.012 10.847-11.648.0-21.815-6.225-27.441-15.51-5.625 9.285-15.793 15.51-27.442 15.51-1.265.0-2.506-.095-3.733-.238v17.824c11.362-.238 21.253-6.362 26.767-15.464 5.626 9.284 15.793 15.509 27.441 15.509 9.567.0 18.132-4.208 24.012-10.847a32.34 32.34.0 009.936 7.551v78.133c0 11.367-7.625 21.473-18.991 21.473h22.038c11.367.0 18.992-10.106 18.992-21.473V86.836z" id="path-5" class="cls-7" fill-rule="evenodd"/><path d="M134.994 43.135c-9.566.0-21.649 6.231-22.221 5.675 7.04-3.618 8.436-7.505 8.436-15.966.0-12.045-9.765-21.809-21.809-21.809s-21.808 9.764-21.808 21.809c0 1.44-9.918-4.658-17.109-4.658-9.975.0-18.367 6.706-20.963 15.849-2.389-.567-4.869-.9-7.432-.9-17.728.0-32.099 14.372-32.099 32.1.0 17.729 14.371 32.101 32.099 32.101 11.649.0 21.817-6.225 27.442-15.51 5.626 9.285 15.793 15.51 27.441 15.51 9.567.0 18.131-4.209 24.012-10.847 5.881 6.638 14.445 10.847 24.011 10.847 17.728.0 32.099-14.372 32.099-32.101.0-17.728-14.371-32.1-32.099-32.1z" id="path-6" fill-rule="evenodd" style="fill:#ffffcf"/><path d="M11.725 85.236a3.615 3.615.0 01-3.599-4.011c1.102-9.968 6.398-19.072 14.529-24.979a3.616 3.616.0 014.25 5.849c-6.49 4.713-10.715 11.976-11.592 19.924a3.615 3.615.0 01-3.588 3.217z" id="path-7" class="cls-9" fill-rule="evenodd"/><path d="M48.343 48.24A3.616 3.616.0 0145.6 42.274a25.37 25.37.0 0119.291-8.887 3.615 3.615.0 110 7.23c-5.31.0-10.34 2.318-13.799 6.359a3.604 3.604.0 01-2.749 1.264z" id="path-8" class="cls-9" fill-rule="evenodd"/><path d="M50.714 87.418c-5.625 9.285-15.793 15.51-27.441 15.51-3.382.0-6.64-.53-9.701-1.5 5.235 3.707 11.613 5.907 18.516 5.907 10.226.0 19.307-4.8 25.179-12.254-2.551-2.206-4.795-4.762-6.553-7.663z" id="path-9" class="cls-7" fill-rule="evenodd"/><path d="M112.393 28.436c0 8.461-1.396 12.348-8.437 15.966.467.453 8.573-3.597 16.734-5.114.364-1.827.519-3.913.519-6.444.0-10.334-7.207-18.943-16.856-21.194 4.869 4 8.04 9.992 8.04 16.786z" id="path-10" class="cls-7" fill-rule="evenodd"/><path d="M102.167 92.081c-5.88 6.638-14.445 10.847-24.011 10.847-3.401.0-6.65-.586-9.722-1.568 5.236 3.736 11.611 5.975 18.537 5.975 8.74.0 16.618-3.537 22.403-9.207a32.518 32.518.0 01-7.207-6.047z" id="path-11" class="cls-7" fill-rule="evenodd"/><path d="M144.695 44.636c8.209 5.814 13.582 15.366 13.582 26.191.0 17.728-14.37 32.101-32.099 32.101-3.378.0-6.621-.549-9.675-1.522 5.226 3.715 11.589 5.929 18.491 5.929 17.728.0 32.099-14.371 32.099-32.1.0-14.345-9.413-26.487-22.398-30.599z" id="path-12" class="cls-7" fill-rule="evenodd"/><path d="M68.026 200.649a3.616 3.616.0 01-3.615-3.615v-70.526a3.615 3.615.0 017.23.0v70.526a3.616 3.616.0 01-3.615 3.615z" id="path-13" class="cls-7" fill-rule="evenodd"/><path d="M98.881 200.649a3.617 3.617.0 01-3.616-3.615v-70.526a3.616 3.616.0 017.229.0v70.526a3.615 3.615.0 01-3.613 3.615z" id="path-14" class="cls-7" fill-rule="evenodd"/></g></svg>

<svg xmlns="http://www.w3.org/2000/svg" xmlns:xlink="http://www.w3.org/1999/xlink" preserveAspectRatio="xMidYMid" width="208" height="217" viewBox="0 0 208 217"><defs><style>.cls-3{fill:#f0c90f}.cls-7{fill:#020403;opacity:.35}.cls-8{fill:#ffffcf}.cls-9{fill:#fff}</style></defs><g id="group-44svg"><path d="M207.217 79.266C207.217 85.293 202.332 90.179 196.306 90.179 190.28 90.179 185.395 85.293 185.395 79.266 185.395 73.241 190.28 68.355 196.306 68.355 202.332 68.355 207.217 73.241 207.217 79.266z" id="path-1" class="cls-3" fill-rule="evenodd"/><path d="M32.723 10.902c0 6.026-4.885 10.912-10.911 10.912-6.026.0-10.911-4.886-10.911-10.912.0-6.027 4.885-10.911 10.911-10.911S32.723 4.875 32.723 10.902z" id="path-2" class="cls-3" fill-rule="evenodd"/><path d="M145.161 177.199s24.243.0 24.243.0.0-61.711.0-61.711-24.243.0-24.243.0S136.117 115.488 136.117 115.488s0 14.707.0 14.707 20.293.0 20.293.0.0 33.794.0 33.794-20.293.0-20.293.0.0 13.21.0 13.21S145.161 177.199 145.161 177.199z" id="path-3" class="cls-3" fill-rule="evenodd"/><path d="M138.55 86.836s0 108.56.0 108.56c0 11.367-7.625 21.473-18.992 21.473H47.524c-11.366.0-19.169-10.106-19.169-21.473V86.836s110.195.0 110.195.0z" id="path-4" class="cls-3" fill-rule="evenodd"/><path d="M138.55 86.836s-22.039.0-22.039.0.0 10.168.0 10.168C114.49 95.57 112.623 93.932 110.983 92.081 105.102 98.719 96.538 102.928 86.971 102.928 75.323 102.928 65.156 96.703 59.53 87.418c-5.625 9.285-15.793 15.51-27.442 15.51-1.265.0-2.506-.0949999999999989-3.733-.238v17.824c11.362-.238 21.253-6.362 26.767-15.464C60.748 114.334 70.915 120.559 82.563 120.559 92.13 120.559 100.695 116.351 106.575 109.712 109.345 112.839 112.726 115.4 116.511 117.263v78.133c0 11.367-7.625 21.473-18.991 21.473h22.038c11.367.0 18.992-10.106 18.992-21.473V119.522s0-16.833.0-16.833.0-15.853.0-15.853z" id="path-5" class="cls-7" fill-rule="evenodd"/><path d="M134.994 43.135c-9.566.0-21.649 6.231-22.221 5.675C119.813 45.192 121.209 41.305 121.209 32.844c0-12.045-9.765-21.809-21.809-21.809-12.044.0-21.808 9.764-21.808 21.809C77.592 34.284 67.674 28.186 60.483 28.186 50.508 28.186 42.116 34.892 39.52 44.035 37.131 43.468 34.651 43.135 32.088 43.135c-17.728.0-32.099 14.372-32.099 32.1.0 17.729 14.371 32.101 32.099 32.101C43.737 107.336 53.905 101.111 59.53 91.826 65.156 101.111 75.323 107.336 86.971 107.336 96.538 107.336 105.102 103.127 110.983 96.489 116.864 103.127 125.428 107.336 134.994 107.336c17.728.0 32.099-14.372 32.099-32.101.0-17.728-14.371-32.1-32.099-32.1z" id="path-6" class="cls-8" fill-rule="evenodd"/><path d="M11.725 85.236C11.591 85.236 11.459 85.23 11.323 85.214 9.339 84.996 7.907 83.209 8.126 81.225 9.228 71.257 14.524 62.153 22.655 56.246 24.274 55.073 26.533 55.432 27.705 57.047 28.878 58.661 28.52 60.923 26.905 62.095 20.415 66.808 16.19 74.071 15.313 82.019 15.108 83.868 13.543 85.236 11.725 85.236z" id="path-7" class="cls-9" fill-rule="evenodd"/><path d="M48.343 48.24C47.512 48.24 46.676 47.956 45.995 47.372 44.478 46.073 44.302 43.792 45.6 42.274c4.835-5.647 11.866-8.887 19.291-8.887 1.996.0 3.615 1.618 3.615 3.614.0 1.996-1.619 3.616-3.615 3.616C59.581 40.617 54.551 42.935 51.092 46.976 50.377 47.812 49.364 48.24 48.343 48.24z" id="path-8" class="cls-9" fill-rule="evenodd"/><path d="M50.714 87.418c-5.625 9.285-15.793 15.51-27.441 15.51-3.382.0-6.64-.530000000000001-9.701-1.5C18.807 105.135 25.185 107.335 32.088 107.335c10.226.0 19.307-4.8 25.179-12.254-2.551-2.206-4.795-4.762-6.553-7.663z" id="path-9" class="cls-7" fill-rule="evenodd"/><path d="M112.393 28.436c0 8.461-1.396 12.348-8.437 15.966C104.423 44.855 112.529 40.805 120.69 39.288 121.054 37.461 121.209 35.375 121.209 32.844 121.209 22.51 114.002 13.901 104.353 11.65 109.222 15.65 112.393 21.642 112.393 28.436z" id="path-10" class="cls-7" fill-rule="evenodd"/><path d="M102.167 92.081C96.287 98.719 87.722 102.928 78.156 102.928 74.755 102.928 71.506 102.342 68.434 101.36 73.67 105.096 80.045 107.335 86.971 107.335 95.711 107.335 103.589 103.798 109.374 98.128 106.688 96.463 104.254 94.434 102.167 92.081z" id="path-11" class="cls-7" fill-rule="evenodd"/><path d="M144.695 44.636c8.209 5.814 13.582 15.366 13.582 26.191.0 17.728-14.37 32.101-32.099 32.101C122.8 102.928 119.557 102.379 116.503 101.406 121.729 105.121 128.092 107.335 134.994 107.335c17.728.0 32.099-14.371 32.099-32.1C167.093 60.89 157.68 48.748 144.695 44.636z" id="path-12" class="cls-7" fill-rule="evenodd"/><path d="M68.026 200.649c-1.996.0-3.615-1.62-3.615-3.61500000000001V126.508C64.411 124.512 66.03 122.894 68.026 122.894 70.022 122.894 71.641 124.512 71.641 126.508v70.526C71.641 199.029 70.022 200.649 68.026 200.649z" id="path-13" class="cls-7" fill-rule="evenodd"/><path d="M98.881 200.649c-1.996.0-3.616-1.62-3.616-3.61500000000001V126.508C95.265 124.512 96.885 122.894 98.881 122.894S102.494 124.512 102.494 126.508v70.526C102.494 199.029 100.877 200.649 98.881 200.649z" id="path-14" class="cls-7" fill-rule="evenodd"/></g></svg>
